X:1
T:Title
%%score ( 1 2 ) ( 3 4 )
L:1/8
Q:1/4=90
M:4/4
K:G
V:1 treble nm="Midi_20"
V:2 treble 
V:3 bass nm="Midi_20"
V:4 bass 
V:1
"^Chapel Royal (8 8 6. 8 8 6.)""^William Boyce\n(1710-79)" G2 | G2 G2 A2 B2 | c2 A2 B2 || G2 | %4
 B2 d2 e2 d2 | c2 B2 A2 || B2 | G2 F2 E2 G2 | F6 || A2 | A2 A2 B2 c2 | d2 B2 c2 || A2 | %13
 e2 dc B2 d2 | F2 G2 A2 || B2 | E2 G2 c2 A2 | G6 |] %18
V:2
 D2 | D2 ^C2 D2 D2 | E2 D2 D2 || E2 | D2 G2 G2 F2 | E2 B,C D2 || ^D2 | E2 ^D2 E2 =D2 | D6 || E2 | %10
 =F2 E2 D2 E2 | =F2 E2 E2 || E2 | G2 D2 D2 D2 | C2 D2 D2 || D2 | C2 D2 E2 D2 | B,6 |] %18
V:3
 B,2 | B,2 G,2 F,2 G,2 | G,2 F,2 G,2 || G,2 | G,2 G,2 C2 A,2 | G,A, G,2 F,2 || F,2 | %7
 G,2 B,2 G,2 B,2 | A,6 || C2 | D2 A,2 ^G,2 A,2 | A,2 ^G,2 A,2 || C2 | C2 A,2 B,2 G,2 | %14
 A,2 B,2 F,2 || G,2 | G,2 G,2 G,2 F,2 | G,6 |] %18
V:4
 G,2 | G,2 E,2 D,2 G,2 | C,2 D,2 G,,2 || C,2 | G,,2 B,,2 C,2 D,2 | E,F, G,2 D,2 || B,,2 | %7
 E,2 B,,2 C,2 G,,2 | D,6 || A,,2 | D,2 C,2 B,,2 A,,2 | D,2 E,2 A,,2 || A,2 | E,2 F,2 G,2 B,,2 | %14
 A,,2 G,,2 D,2 || G,,2 | C,2 B,,2 A,,2 D,2 | G,,6 |] %18

